X:65
T:Young Essex
T:very pretty
Z:Jack Campin - http://www.campin.me.uk
S:Blaikie MS (NLS MS.1578) p20
N:Blaikie #60
M:6/8
L:1/8
V:1 midi program 1 74
V:2 midi program 1 46 bass middle = d transpose -24
Q:3/8=72
K:A Minor
[V:1] A|ABc BEE|EDD E2G|ABc Bee|E>FG A2
[V:2] z|a3 ^g3 |a2f e2z|a3 ^g3 |e3   A2
%
[V:1] E|ABc Bcd|dee dcd|eDD D2
[V:2] z|a3  g3 |c3  g3 |G3  g2
%
[V:1] F|EGF EDC|EFE CDE|EAG A2|]
[V:2] f|c3  c3 |c3  c3 |e3  A2|]
W:Transcription (c) Jack Campin 2009, no mirroring or republication without permission

